lib/logo_updates/nrk-logo-nrk-p3-on-dark.svg

<svg width="204" height="48" viewBox="0 0 204 48" fill="none" xmlns="http://www.w3.org/2000/svg">
<path d="M162.166 3.01733H149.212C149.212 3.01733 156.573 15.1013 156.656 15.2534C156.933 15.6028 157.088 16.0337 157.097 16.4798C157.106 16.9259 156.968 17.3625 156.704 17.7225L149.212 30.004H162.168C162.168 30.004 168.416 19.7877 169.27 18.3695C169.675 17.8261 169.892 17.1649 169.885 16.4871C169.879 15.8092 169.651 15.1521 169.236 14.6163C168.314 13.0469 168.312 13.048 162.166 3.01733Z" fill="#FFE100"/>
<path d="M147.538 3.01748H136V44.9939H147.538V3.01748Z" fill="#FFE100"/>
<path d="M202.743 9.97144C202.307 9.22872 198.451 3.01733 198.451 3.01733H170.722L176.779 13.1773H191.385L185.36 23.0539L192.076 34.3379L185.594 44.9907H197.432C199.335 41.8776 202.181 37.0619 202.775 36.0752C203.183 35.5299 203.401 34.8657 203.394 34.1849C203.388 33.504 203.158 32.844 202.741 32.3063C202.148 31.2949 198.978 26.2668 197.083 23.1715C197.083 23.1715 202.181 14.725 202.775 13.7383C203.183 13.1934 203.4 12.5298 203.394 11.8494C203.389 11.169 203.16 10.5092 202.743 9.97144Z" fill="#FFE100"/>
<path d="M176.07 24.4179C174.245 27.3986 171.193 32.3942 170.621 33.368C170.219 33.886 169.997 34.5218 169.991 35.1777C169.985 35.8336 170.195 36.4733 170.588 36.9986C171.16 37.9487 174.236 42.9839 176.07 45.9863C177.903 42.9868 180.98 37.9517 181.552 36.9986C181.944 36.4733 182.154 35.8336 182.148 35.1778C182.142 34.522 181.921 33.8862 181.519 33.368C180.947 32.3942 177.894 27.3986 176.07 24.4179Z" fill="#FFE100"/>
<path d="M0 45V3.00381H13.7802V45H0ZM32.5283 9.68773L40.4532 45H25.3721L15.9092 3.00381H24.3676C26.3072 2.97864 28.1892 3.66237 29.6607 4.92636C31.1347 6.13734 32.1473 7.81844 32.5283 9.68773ZM42.5233 45V3.00381H56.3035V45H42.5233ZM66.7116 18.9743C65.2267 18.9888 63.7656 18.6003 62.4839 17.8504C61.2193 17.1194 60.1688 16.0689 59.438 14.8041C58.6872 13.5222 58.2986 12.0607 58.3134 10.5751C58.2964 9.09861 58.6853 7.64583 59.438 6.3755C60.1766 5.12447 61.2259 4.08533 62.4839 3.35882C63.766 2.60976 65.2269 2.2213 66.7116 2.23484C68.1877 2.21895 69.6399 2.60775 70.9108 3.35882C72.1562 4.09169 73.1943 5.12996 73.9271 6.3755C74.6789 7.64618 75.0677 9.09873 75.0517 10.5751C75.0655 12.0605 74.6769 13.5218 73.9271 14.8041C73.202 16.0633 72.1627 17.113 70.9108 17.8504C69.6398 18.6029 68.1866 18.9918 66.7097 18.9743H66.7116ZM77.1807 45V3.00381H90.9621V45H77.1807ZM108.408 25.9538C108.447 25.9946 108.742 26.4776 109.295 27.403C109.848 28.3283 110.567 29.5114 111.454 30.952C112.341 32.392 113.277 33.9199 114.262 35.536C115.247 37.1521 116.174 38.6803 117.043 40.1202C117.908 41.5602 118.894 43.1867 120 45H104.859C103.912 43.4621 103.055 42.0721 102.286 40.83C101.517 39.5878 100.7 38.2471 99.8334 36.8077C98.9653 35.3698 98.1071 33.9699 97.2587 32.6081C96.4103 31.2464 95.6813 30.0536 95.0714 29.0297C94.459 28.0051 94.0348 27.3149 93.7989 26.9594C93.2139 26.0771 92.8677 25.058 92.7944 24.0019C92.853 22.9883 93.1791 22.0084 93.7397 21.1619C93.9762 20.7676 94.41 20.0675 95.0409 19.062C95.6717 18.0564 96.411 16.8637 97.2587 15.4835C98.1064 14.1034 98.9647 12.6936 99.8334 11.2543C100.702 9.81501 101.519 8.46432 102.286 7.20247C103.056 5.94193 103.914 4.54205 104.859 3.00285H120L108.289 22.1082C107.926 22.6755 107.722 23.3292 107.697 24.0019C107.736 24.7081 107.983 25.3871 108.406 25.9538H108.408Z" fill="white"/>
</svg>

<svg xmlns="http://www.w3.org/2000/svg" viewBox="0 0 204 48"><path fill="#FFE100" d="M162.166 3.017h-12.954s7.361 12.084 7.444 12.236a2.04 2.04 0 0 1 .048 2.47l-7.492 12.281h12.956s6.248-10.216 7.102-11.635a3.098 3.098 0 0 0-.034-3.753c-.922-1.57-.924-1.568-7.07-11.599ZM147.538 3.017H136v41.977h11.538V3.017ZM202.743 9.971c-.436-.742-4.292-6.954-4.292-6.954h-27.729l6.057 10.16h14.606l-6.025 9.877 6.716 11.284-6.482 10.653h11.838c1.903-3.113 4.749-7.93 5.343-8.916a3.111 3.111 0 0 0-.034-3.769c-.593-1.011-3.763-6.04-5.658-9.135 0 0 5.098-8.446 5.692-9.433a3.105 3.105 0 0 0-.032-3.767Z"/><path fill="#FFE100" d="M176.07 24.418c-1.825 2.98-4.877 7.976-5.449 8.95a2.998 2.998 0 0 0-.033 3.63c.572.95 3.648 5.986 5.482 8.988 1.833-3 4.91-8.034 5.482-8.987a3 3 0 0 0-.033-3.631c-.572-.974-3.625-5.97-5.449-8.95Z"/><path fill="#fff" d="M0 45V3.004h13.78V45H0ZM32.528 9.688 40.453 45h-15.08L15.908 3.004h8.459a7.965 7.965 0 0 1 5.293 1.922 8.31 8.31 0 0 1 2.867 4.762ZM42.523 45V3.004h13.78V45h-13.78Zm24.189-26.026a8.213 8.213 0 0 1-4.228-1.124 8.336 8.336 0 0 1-3.046-3.046 8.206 8.206 0 0 1-1.125-4.229 8.056 8.056 0 0 1 1.125-4.2 8.437 8.437 0 0 1 3.046-3.016 8.232 8.232 0 0 1 4.228-1.124 8.083 8.083 0 0 1 4.199 1.124 8.503 8.503 0 0 1 3.016 3.016 8.075 8.075 0 0 1 1.125 4.2 8.226 8.226 0 0 1-1.125 4.23 8.4 8.4 0 0 1-3.016 3.045 8.059 8.059 0 0 1-4.201 1.124h.002ZM77.18 45V3.004h13.781V45H77.181Zm31.227-19.046c.039.04.334.524.887 1.449.553.925 1.272 2.108 2.159 3.549a1143.28 1143.28 0 0 1 5.589 9.168A854.89 854.89 0 0 0 120 45h-15.141c-.947-1.538-1.804-2.928-2.573-4.17a382.214 382.214 0 0 1-2.453-4.022 351.934 351.934 0 0 0-2.574-4.2 213.445 213.445 0 0 1-2.188-3.578 62.753 62.753 0 0 0-1.272-2.07 6.119 6.119 0 0 1-1.005-2.958 5.744 5.744 0 0 1 .946-2.84c.236-.394.67-1.095 1.3-2.1.632-1.006 1.371-2.198 2.219-3.579a636.03 636.03 0 0 0 2.574-4.229c.869-1.439 1.686-2.79 2.453-4.052.77-1.26 1.628-2.66 2.573-4.2H120l-11.711 19.106a3.773 3.773 0 0 0-.592 1.894c.039.706.286 1.385.709 1.952h.002Z"/></svg>
